X:1
T:7 Lieder
T:A Song of Autumn
T:7 Lieder
T:Edward Elgar
T:3. A Song of Autumn Herbstlied 
T:Adam Lindsay Gordon German Lyrics by Ed. Sachs 
T:Creative Commons copyright waiver (CC0 1.0 Universal)
T:Creative Commons copyright waiver (CC0 1.0 Universal)
T:Creative Commons copyright waiver (CC0 1.0 Universal)
T:Creative Commons copyright waiver (CC0 1.0 Universal)
T:Creative Commons copyright waiver (CC0 1.0 Universal)
T:Creative Commons copyright waiver (CC0 1.0 Universal)
C:Edward Elgar
Z:Adam Lindsay Gordon
Z:Creative Commons copyright waiver (CC0 1.0 Universal)
%%score { 1 | 2 }
L:1/8
M:4/4
K:Eb
V:1 treble nm="Piano"
V:2 bass 
V:1
 z | z8 | z8 | z8 | z8 | z8 | z8 | z8 | z8 | z8 | z8 | z8 | z8 | z8 | z8 | z8 | z8 | z8 | z8 | z8 | %20
 z8 | z8 | z8 | z8 | z8 | z8 | z8 | z8 | z8 | z8 | z8 | z8 | z8 | z8 | z8 | z8 | z8 | z8 | z8 | %39
 z8 | z8 | z8 | z8 | z8 | z8 | z8 | z8 | z8 | z8 | z8 | %50
"_rit." ([=A,E=A]2!>(! .[B,EB].[G,EG])!>)! !fermata![Be]2- [Be] !fermata!z |] %51
V:2
 z | z8 | z8 | z8 | z8 | z8 | z8 | z8 | z8 | z8 | z8 | z8 | z8 | z8 | z8 | z8 | z8 | z8 | z8 | z8 | %20
 z8 | z8 | z8 | z8 | z8 | z8 | z8 | z8 | z8 | z8 | z8 | z8 | z8 | z8 | z8 | z8 | z8 | z8 | z8 | %39
 z8 | z8 | z8 | z8 | z8 | z8 | z8 | z8 | z8 | z8 | z8 | %50
 ([^F,,E,^F,]2 .[G,,E,G,].[E,,B,,E,])[I:staff -1] [EG]2- [EG][I:staff +1] z |] %51

